images/50422960.svg

<?xml version="1.0" encoding="UTF-8"?>
<svg xmlns="http://www.w3.org/2000/svg" xmlns:xlink="http://www.w3.org/1999/xlink" width="300pt" height="300pt" viewBox="0 0 300 300" version="1.1">
<defs>
<g>
<symbol overflow="visible" id="glyph0-0">
<path style="stroke:none;" d="M 0.59375 2.125 L 0.59375 -8.46875 L 6.59375 -8.46875 L 6.59375 2.125 Z M 1.265625 1.453125 L 5.9375 1.453125 L 5.9375 -7.78125 L 1.265625 -7.78125 Z M 1.265625 1.453125 "/>
</symbol>
<symbol overflow="visible" id="glyph0-1">
<path style="stroke:none;" d="M 1.171875 -8.75 L 6.203125 -8.75 L 6.203125 -7.75 L 2.359375 -7.75 L 2.359375 -5.171875 L 5.828125 -5.171875 L 5.828125 -4.171875 L 2.359375 -4.171875 L 2.359375 0 L 1.171875 0 Z M 1.171875 -8.75 "/>
</symbol>
<symbol overflow="visible" id="glyph0-2">
<path style="stroke:none;" d="M 1.171875 -8.75 L 2.765625 -8.75 L 6.65625 -1.4375 L 6.65625 -8.75 L 7.796875 -8.75 L 7.796875 0 L 6.203125 0 L 2.328125 -7.3125 L 2.328125 0 L 1.171875 0 Z M 1.171875 -8.75 "/>
</symbol>
<symbol overflow="visible" id="glyph0-3">
<path style="stroke:none;" d="M 1.171875 -8.75 L 2.359375 -8.75 L 2.359375 -5.15625 L 6.65625 -5.15625 L 6.65625 -8.75 L 7.84375 -8.75 L 7.84375 0 L 6.65625 0 L 6.65625 -4.171875 L 2.359375 -4.171875 L 2.359375 0 L 1.171875 0 Z M 1.171875 -8.75 "/>
</symbol>
</g>
</defs>
<g id="surface12517">
<rect x="0" y="0" width="300" height="300" style="fill:rgb(100%,100%,100%);fill-opacity:1;stroke:none;"/>
<path style="fill:none;stroke-width:1.2;stroke-linecap:butt;stroke-linejoin:miter;stroke:rgb(20%,80%,80%);stroke-opacity:1;stroke-miterlimit:10;" d="M 35.25 213.183594 L 43.039062 200.46875 "/>
<path style="fill:none;stroke-width:1.2;stroke-linecap:butt;stroke-linejoin:miter;stroke:rgb(0%,0%,0%);stroke-opacity:1;stroke-miterlimit:10;" d="M 43.039062 200.46875 L 50.828125 187.753906 "/>
<path style=" stroke:none;fill-rule:nonzero;fill:rgb(100%,100%,100%);fill-opacity:1;" d="M 28.25 206.183594 L 35.25 206.183594 L 35.25 220.183594 L 28.25 220.183594 Z M 28.25 206.183594 "/>
<g style="fill:rgb(20%,80%,80%);fill-opacity:1;">
  <use xlink:href="#glyph0-1" x="28.25" y="217.322266"/>
</g>
<path style="fill:none;stroke-width:1.2;stroke-linecap:butt;stroke-linejoin:miter;stroke:rgb(0%,0%,0%);stroke-opacity:1;stroke-miterlimit:10;" d="M 50.828125 187.753906 L 36.597656 161.546875 "/>
<path style="fill:none;stroke-width:1.2;stroke-linecap:butt;stroke-linejoin:miter;stroke:rgb(0%,0%,0%);stroke-opacity:1;stroke-miterlimit:10;" d="M 55.574219 181.785156 L 44.1875 160.820312 "/>
<path style="fill:none;stroke-width:1.2;stroke-linecap:butt;stroke-linejoin:miter;stroke:rgb(0%,0%,0%);stroke-opacity:1;stroke-miterlimit:10;" d="M 80.640625 188.53125 L 50.828125 187.753906 "/>
<path style="fill:none;stroke-width:1.2;stroke-linecap:butt;stroke-linejoin:miter;stroke:rgb(0%,0%,0%);stroke-opacity:1;stroke-miterlimit:10;" d="M 36.597656 161.546875 L 52.175781 136.117188 "/>
<path style="fill:none;stroke-width:1.2;stroke-linecap:butt;stroke-linejoin:miter;stroke:rgb(0%,0%,0%);stroke-opacity:1;stroke-miterlimit:10;" d="M 52.175781 136.117188 L 81.988281 136.898438 "/>
<path style="fill:none;stroke-width:1.2;stroke-linecap:butt;stroke-linejoin:miter;stroke:rgb(0%,0%,0%);stroke-opacity:1;stroke-miterlimit:10;" d="M 54.976562 143.210938 L 78.824219 143.832031 "/>
<path style="fill:none;stroke-width:1.2;stroke-linecap:butt;stroke-linejoin:miter;stroke:rgb(0%,0%,0%);stroke-opacity:1;stroke-miterlimit:10;" d="M 81.988281 136.898438 L 89.777344 124.183594 "/>
<path style="fill:none;stroke-width:1.2;stroke-linecap:butt;stroke-linejoin:miter;stroke:rgb(0%,0%,100%);stroke-opacity:1;stroke-miterlimit:10;" d="M 89.777344 124.183594 L 97.570312 111.46875 "/>
<path style="fill:none;stroke-width:1.2;stroke-linecap:butt;stroke-linejoin:miter;stroke:rgb(0%,0%,0%);stroke-opacity:1;stroke-miterlimit:10;" d="M 81.988281 136.898438 L 96.222656 163.101562 "/>
<path style="fill:none;stroke-width:1.2;stroke-linecap:butt;stroke-linejoin:miter;stroke:rgb(0%,0%,100%);stroke-opacity:1;stroke-miterlimit:10;" d="M 97.570312 111.46875 L 112.476562 111.855469 "/>
<path style="fill:none;stroke-width:1.2;stroke-linecap:butt;stroke-linejoin:miter;stroke:rgb(0%,0%,0%);stroke-opacity:1;stroke-miterlimit:10;" d="M 112.476562 111.855469 L 127.382812 112.246094 "/>
<path style=" stroke:none;fill-rule:nonzero;fill:rgb(100%,100%,100%);fill-opacity:1;" d="M 88.570312 104.46875 L 106.570312 104.46875 L 106.570312 118.46875 L 88.570312 118.46875 Z M 88.570312 104.46875 "/>
<g style="fill:rgb(0%,0%,100%);fill-opacity:1;">
  <use xlink:href="#glyph0-2" x="88.570312" y="115.607422"/>
  <use xlink:href="#glyph0-3" x="97.546875" y="115.607422"/>
</g>
<path style="fill:none;stroke-width:1.2;stroke-linecap:butt;stroke-linejoin:miter;stroke:rgb(0%,0%,0%);stroke-opacity:1;stroke-miterlimit:10;" d="M 127.382812 112.246094 L 134.496094 125.347656 "/>
<path style="fill:none;stroke-width:1.2;stroke-linecap:butt;stroke-linejoin:miter;stroke:rgb(0%,0%,100%);stroke-opacity:1;stroke-miterlimit:10;" d="M 134.496094 125.347656 L 141.613281 138.453125 "/>
<path style="fill:none;stroke-width:1.2;stroke-linecap:butt;stroke-linejoin:miter;stroke:rgb(0%,0%,0%);stroke-opacity:1;stroke-miterlimit:10;" d="M 134.972656 111.515625 L 140.664062 122 "/>
<path style="fill:none;stroke-width:1.2;stroke-linecap:butt;stroke-linejoin:miter;stroke:rgb(0%,0%,100%);stroke-opacity:1;stroke-miterlimit:10;" d="M 140.664062 122 L 146.355469 132.484375 "/>
<path style="fill:none;stroke-width:1.2;stroke-linecap:butt;stroke-linejoin:miter;stroke:rgb(0%,0%,100%);stroke-opacity:1;stroke-miterlimit:10;" d="M 142.960938 86.816406 L 135.171875 99.53125 "/>
<path style="fill:none;stroke-width:1.2;stroke-linecap:butt;stroke-linejoin:miter;stroke:rgb(0%,0%,0%);stroke-opacity:1;stroke-miterlimit:10;" d="M 135.171875 99.53125 L 127.382812 112.246094 "/>
<path style="fill:none;stroke-width:1.2;stroke-linecap:butt;stroke-linejoin:miter;stroke:rgb(0%,0%,100%);stroke-opacity:1;stroke-miterlimit:10;" d="M 141.613281 138.453125 L 156.519531 138.839844 "/>
<path style="fill:none;stroke-width:1.2;stroke-linecap:butt;stroke-linejoin:miter;stroke:rgb(0%,0%,0%);stroke-opacity:1;stroke-miterlimit:10;" d="M 156.519531 138.839844 L 171.425781 139.230469 "/>
<path style=" stroke:none;fill-rule:nonzero;fill:rgb(100%,100%,100%);fill-opacity:1;" d="M 137.613281 131.453125 L 146.613281 131.453125 L 146.613281 145.453125 L 137.613281 145.453125 Z M 137.613281 131.453125 "/>
<g style="fill:rgb(0%,0%,100%);fill-opacity:1;">
  <use xlink:href="#glyph0-2" x="137.613281" y="142.591797"/>
</g>
<path style="fill:none;stroke-width:1.2;stroke-linecap:butt;stroke-linejoin:miter;stroke:rgb(0%,0%,0%);stroke-opacity:1;stroke-miterlimit:10;" d="M 171.425781 139.230469 L 187.003906 113.800781 "/>
<path style="fill:none;stroke-width:1.2;stroke-linecap:butt;stroke-linejoin:miter;stroke:rgb(0%,0%,0%);stroke-opacity:1;stroke-miterlimit:10;" d="M 167 133.023438 L 179.464844 112.679688 "/>
<path style="fill:none;stroke-width:1.2;stroke-linecap:butt;stroke-linejoin:miter;stroke:rgb(0%,0%,0%);stroke-opacity:1;stroke-miterlimit:10;" d="M 171.425781 139.230469 L 185.65625 165.4375 "/>
<path style="fill:none;stroke-width:1.2;stroke-linecap:butt;stroke-linejoin:miter;stroke:rgb(0%,0%,0%);stroke-opacity:1;stroke-miterlimit:10;" d="M 187.003906 113.800781 L 172.773438 87.59375 "/>
<path style="fill:none;stroke-width:1.2;stroke-linecap:butt;stroke-linejoin:miter;stroke:rgb(0%,0%,0%);stroke-opacity:1;stroke-miterlimit:10;" d="M 172.773438 87.59375 L 157.867188 87.207031 "/>
<path style="fill:none;stroke-width:1.2;stroke-linecap:butt;stroke-linejoin:miter;stroke:rgb(0%,0%,100%);stroke-opacity:1;stroke-miterlimit:10;" d="M 157.867188 87.207031 L 142.960938 86.816406 "/>
<path style="fill:none;stroke-width:1.2;stroke-linecap:butt;stroke-linejoin:miter;stroke:rgb(0%,0%,0%);stroke-opacity:1;stroke-miterlimit:10;" d="M 169.609375 94.53125 L 157.683594 94.21875 "/>
<path style="fill:none;stroke-width:1.2;stroke-linecap:butt;stroke-linejoin:miter;stroke:rgb(0%,0%,100%);stroke-opacity:1;stroke-miterlimit:10;" d="M 157.683594 94.21875 L 145.757812 93.910156 "/>
<path style=" stroke:none;fill-rule:nonzero;fill:rgb(100%,100%,100%);fill-opacity:1;" d="M 138.960938 79.816406 L 147.960938 79.816406 L 147.960938 93.816406 L 138.960938 93.816406 Z M 138.960938 79.816406 "/>
<g style="fill:rgb(0%,0%,100%);fill-opacity:1;">
  <use xlink:href="#glyph0-2" x="138.960938" y="90.955078"/>
</g>
<path style="fill:none;stroke-width:1.2;stroke-linecap:butt;stroke-linejoin:miter;stroke:rgb(0%,0%,0%);stroke-opacity:1;stroke-miterlimit:10;" d="M 185.65625 165.4375 L 200.441406 167.382812 "/>
<path style="fill:none;stroke-width:1.2;stroke-linecap:butt;stroke-linejoin:miter;stroke:rgb(0%,0%,100%);stroke-opacity:1;stroke-miterlimit:10;" d="M 200.441406 167.382812 L 215.226562 169.328125 "/>
<path style="fill:none;stroke-width:1.2;stroke-linecap:butt;stroke-linejoin:miter;stroke:rgb(0%,0%,0%);stroke-opacity:1;stroke-miterlimit:10;" d="M 172.820312 192.355469 L 185.65625 165.4375 "/>
<path style="fill:none;stroke-width:1.2;stroke-linecap:butt;stroke-linejoin:miter;stroke:rgb(0%,0%,0%);stroke-opacity:1;stroke-miterlimit:10;" d="M 180.4375 192.683594 L 190.707031 171.148438 "/>
<path style="fill:none;stroke-width:1.2;stroke-linecap:butt;stroke-linejoin:miter;stroke:rgb(0%,0%,100%);stroke-opacity:1;stroke-miterlimit:10;" d="M 215.226562 169.328125 L 225.488281 158.511719 "/>
<path style="fill:none;stroke-width:1.2;stroke-linecap:butt;stroke-linejoin:miter;stroke:rgb(0%,0%,0%);stroke-opacity:1;stroke-miterlimit:10;" d="M 225.488281 158.511719 L 235.75 147.695312 "/>
<path style="fill:none;stroke-width:1.2;stroke-linecap:butt;stroke-linejoin:miter;stroke:rgb(0%,0%,100%);stroke-opacity:1;stroke-miterlimit:10;" d="M 215.226562 169.328125 L 217.945312 183.988281 "/>
<path style="fill:none;stroke-width:1.2;stroke-linecap:butt;stroke-linejoin:miter;stroke:rgb(0%,0%,0%);stroke-opacity:1;stroke-miterlimit:10;" d="M 217.945312 183.988281 L 220.664062 198.648438 "/>
<path style=" stroke:none;fill-rule:nonzero;fill:rgb(100%,100%,100%);fill-opacity:1;" d="M 211.226562 162.328125 L 220.226562 162.328125 L 220.226562 176.328125 L 211.226562 176.328125 Z M 211.226562 162.328125 "/>
<g style="fill:rgb(0%,0%,100%);fill-opacity:1;">
  <use xlink:href="#glyph0-2" x="211.226562" y="173.466797"/>
</g>
<path style="fill:none;stroke-width:1.2;stroke-linecap:butt;stroke-linejoin:miter;stroke:rgb(0%,0%,0%);stroke-opacity:1;stroke-miterlimit:10;" d="M 235.75 147.695312 L 264.75 154.652344 "/>
<path style="fill:none;stroke-width:1.2;stroke-linecap:butt;stroke-linejoin:miter;stroke:rgb(0%,0%,0%);stroke-opacity:1;stroke-miterlimit:10;" d="M 235.75 147.695312 L 227.277344 119.101562 "/>
<path style="fill:none;stroke-width:1.2;stroke-linecap:butt;stroke-linejoin:miter;stroke:rgb(0%,0%,0%);stroke-opacity:1;stroke-miterlimit:10;" d="M 220.664062 198.648438 L 207.558594 205.765625 "/>
<path style="fill:none;stroke-width:1.2;stroke-linecap:butt;stroke-linejoin:miter;stroke:rgb(0%,0%,100%);stroke-opacity:1;stroke-miterlimit:10;" d="M 207.558594 205.765625 L 194.457031 212.882812 "/>
<path style="fill:none;stroke-width:1.2;stroke-linecap:butt;stroke-linejoin:miter;stroke:rgb(0%,0%,0%);stroke-opacity:1;stroke-miterlimit:10;" d="M 214.691406 193.90625 L 204.210938 199.597656 "/>
<path style="fill:none;stroke-width:1.2;stroke-linecap:butt;stroke-linejoin:miter;stroke:rgb(0%,0%,100%);stroke-opacity:1;stroke-miterlimit:10;" d="M 204.210938 199.597656 L 193.726562 205.292969 "/>
<path style="fill:none;stroke-width:1.2;stroke-linecap:butt;stroke-linejoin:miter;stroke:rgb(0%,0%,0%);stroke-opacity:1;stroke-miterlimit:10;" d="M 220.664062 198.648438 L 247.582031 211.484375 "/>
<path style="fill:none;stroke-width:1.2;stroke-linecap:butt;stroke-linejoin:miter;stroke:rgb(0%,0%,100%);stroke-opacity:1;stroke-miterlimit:10;" d="M 194.457031 212.882812 L 183.636719 202.617188 "/>
<path style="fill:none;stroke-width:1.2;stroke-linecap:butt;stroke-linejoin:miter;stroke:rgb(0%,0%,0%);stroke-opacity:1;stroke-miterlimit:10;" d="M 183.636719 202.617188 L 172.820312 192.355469 "/>
<path style=" stroke:none;fill-rule:nonzero;fill:rgb(100%,100%,100%);fill-opacity:1;" d="M 190.457031 205.882812 L 199.457031 205.882812 L 199.457031 219.882812 L 190.457031 219.882812 Z M 190.457031 205.882812 "/>
<g style="fill:rgb(0%,0%,100%);fill-opacity:1;">
  <use xlink:href="#glyph0-2" x="190.457031" y="217.021484"/>
</g>
<path style="fill:none;stroke-width:1.2;stroke-linecap:butt;stroke-linejoin:miter;stroke:rgb(0%,0%,0%);stroke-opacity:1;stroke-miterlimit:10;" d="M 96.222656 163.101562 L 80.640625 188.53125 "/>
<path style="fill:none;stroke-width:1.2;stroke-linecap:butt;stroke-linejoin:miter;stroke:rgb(0%,0%,0%);stroke-opacity:1;stroke-miterlimit:10;" d="M 88.679688 161.980469 L 76.214844 182.324219 "/>
</g>
</svg>

<svg xmlns="http://www.w3.org/2000/svg" xmlns:xlink="http://www.w3.org/1999/xlink" width="300pt" height="300pt" viewBox="0 0 300 300"><defs><symbol overflow="visible"><path d="M.594 2.125V-8.47h6V2.126zm.672-.672h4.671V-7.78h-4.67zm0 0"/></symbol><symbol overflow="visible" id="a"><path d="M1.172-8.75h5.03v1H2.36v2.578h3.468v1h-3.47V0H1.173zm0 0"/></symbol><symbol overflow="visible" id="b"><path d="M1.172-8.75h1.594l3.89 7.313V-8.75h1.14V0H6.204L2.328-7.313V0H1.172zm0 0"/></symbol><symbol overflow="visible" id="c"><path d="M1.172-8.75H2.36v3.594h4.296V-8.75h1.188V0H6.656v-4.172H2.36V0H1.17zm0 0"/></symbol></defs><g><path fill="#fff" d="M0 0h300v300H0z"/><path d="M35.25 213.184l7.79-12.715" stroke-width="1.2" stroke="#3cc" stroke-miterlimit="10" fill="none"/><path d="M43.04 200.47l7.788-12.716" stroke-width="1.2" stroke="#000" stroke-miterlimit="10" fill="none"/><path d="M28.25 206.184h7v14h-7zm0 0" fill="#fff"/><use xlink:href="#a" x="28.25" y="217.322" fill="#3cc"/><path d="M50.828 187.754l-14.23-26.207M55.574 181.785L44.188 160.82M80.64 188.53l-29.812-.776M36.598 161.547l15.578-25.43M52.176 136.117l29.812.78M54.977 143.21l23.847.622M81.988 136.898l7.79-12.714" stroke-width="1.2" stroke="#000" stroke-miterlimit="10" fill="none"/><path d="M89.777 124.184l7.793-12.715" stroke-width="1.2" stroke="#00f" stroke-miterlimit="10" fill="none"/><path d="M81.988 136.898l14.235 26.204" stroke-width="1.2" stroke="#000" stroke-miterlimit="10" fill="none"/><path d="M97.57 111.47l14.907.385" stroke-width="1.2" stroke="#00f" stroke-miterlimit="10" fill="none"/><path d="M112.477 111.855l14.906.39" stroke-width="1.2" stroke="#000" stroke-miterlimit="10" fill="none"/><path d="M88.57 104.47h18v14h-18zm0 0" fill="#fff"/><g fill="#00f"><use xlink:href="#b" x="88.57" y="115.607"/><use xlink:href="#c" x="97.547" y="115.607"/></g><path d="M127.383 112.246l7.113 13.102" stroke-width="1.2" stroke="#000" stroke-miterlimit="10" fill="none"/><path d="M134.496 125.348l7.117 13.105" stroke-width="1.2" stroke="#00f" stroke-miterlimit="10" fill="none"/><path d="M134.973 111.516l5.69 10.484" stroke-width="1.2" stroke="#000" stroke-miterlimit="10" fill="none"/><path d="M140.664 122l5.69 10.484M142.96 86.816l-7.788 12.715" stroke-width="1.2" stroke="#00f" stroke-miterlimit="10" fill="none"/><path d="M135.172 99.53l-7.79 12.716" stroke-width="1.2" stroke="#000" stroke-miterlimit="10" fill="none"/><path d="M141.613 138.453l14.907.387" stroke-width="1.2" stroke="#00f" stroke-miterlimit="10" fill="none"/><path d="M156.52 138.84l14.906.39" stroke-width="1.2" stroke="#000" stroke-miterlimit="10" fill="none"/><path d="M137.613 131.453h9v14h-9zm0 0" fill="#fff"/><use xlink:href="#b" x="137.613" y="142.592" fill="#00f"/><path d="M171.426 139.23l15.578-25.43M167 133.023l12.465-20.343M171.426 139.23l14.23 26.208M187.004 113.8l-14.23-26.206M172.773 87.594l-14.906-.387" stroke-width="1.2" stroke="#000" stroke-miterlimit="10" fill="none"/><path d="M157.867 87.207l-14.906-.39" stroke-width="1.2" stroke="#00f" stroke-miterlimit="10" fill="none"/><path d="M169.61 94.53l-11.926-.31" stroke-width="1.2" stroke="#000" stroke-miterlimit="10" fill="none"/><path d="M157.684 94.22l-11.926-.31" stroke-width="1.2" stroke="#00f" stroke-miterlimit="10" fill="none"/><path d="M138.96 79.816h9v14h-9zm0 0" fill="#fff"/><use xlink:href="#b" x="138.961" y="90.955" fill="#00f"/><path d="M185.656 165.438l14.785 1.945" stroke-width="1.2" stroke="#000" stroke-miterlimit="10" fill="none"/><path d="M200.44 167.383l14.787 1.945" stroke-width="1.2" stroke="#00f" stroke-miterlimit="10" fill="none"/><path d="M172.82 192.355l12.836-26.917M180.438 192.684l10.27-21.536" stroke-width="1.2" stroke="#000" stroke-miterlimit="10" fill="none"/><path d="M215.227 169.328l10.26-10.816" stroke-width="1.2" stroke="#00f" stroke-miterlimit="10" fill="none"/><path d="M225.488 158.512l10.262-10.817" stroke-width="1.2" stroke="#000" stroke-miterlimit="10" fill="none"/><path d="M215.227 169.328l2.718 14.66" stroke-width="1.2" stroke="#00f" stroke-miterlimit="10" fill="none"/><path d="M217.945 183.988l2.72 14.66" stroke-width="1.2" stroke="#000" stroke-miterlimit="10" fill="none"/><path d="M211.227 162.328h9v14h-9zm0 0" fill="#fff"/><use xlink:href="#b" x="211.227" y="173.467" fill="#00f"/><path d="M235.75 147.695l29 6.957M235.75 147.695l-8.473-28.593M220.664 198.648l-13.105 7.118" stroke-width="1.2" stroke="#000" stroke-miterlimit="10" fill="none"/><path d="M207.56 205.766l-13.103 7.117" stroke-width="1.2" stroke="#00f" stroke-miterlimit="10" fill="none"/><path d="M214.69 193.906l-10.48 5.692" stroke-width="1.2" stroke="#000" stroke-miterlimit="10" fill="none"/><path d="M204.21 199.598l-10.483 5.695" stroke-width="1.2" stroke="#00f" stroke-miterlimit="10" fill="none"/><path d="M220.664 198.648l26.918 12.836" stroke-width="1.2" stroke="#000" stroke-miterlimit="10" fill="none"/><path d="M194.457 212.883l-10.82-10.266" stroke-width="1.2" stroke="#00f" stroke-miterlimit="10" fill="none"/><path d="M183.637 202.617l-10.817-10.262" stroke-width="1.2" stroke="#000" stroke-miterlimit="10" fill="none"/><path d="M190.457 205.883h9v14h-9zm0 0" fill="#fff"/><use xlink:href="#b" x="190.457" y="217.021" fill="#00f"/><path d="M96.223 163.102l-15.582 25.43M88.68 161.98l-12.465 20.344" stroke-width="1.2" stroke="#000" stroke-miterlimit="10" fill="none"/></g></svg>
